X: 130025
M: 2/4
L: 1/16
K: D
|:\
f2fa (gf)ed | cdef (ge)e2 |
f2fd (gf)ed | cdea (fd)d2 |\
f2fa (gf)ed | cdef (ge)e2 |\
f2fd g2ge | abag (fd)d2 |]


